X:5717
T:Gan Ainm
R:Reel
S:
H:
N:
D:Clare FM
Z:Adrian Scahill
M:4/4
L:1/8
K:G
GBde dBB2|ABcd BGFG|Ecc2 DBde|dBB2 A3B|\
GBde dBB2|ABcd BGFG|Ecc2 Dgfe|dB (3cBA G4:||\
g3d edd^c|dged edBA|G3d BGBd|gedB ABcA|\
d3e dBB2|ABcd BGFG|Ecc2 Dgfe|dB (3cBA G4:||
